X:1085
T:My love she is but a lassie yet
A:Wyresdale, Lancashire
B:E and J Winder, 1835-41
L:1/8
M:2/4
O:England
Z:Richard Robinson 
%%TUNEURL: http://www.leeds.ac.uk/music/Info/RRTuneBk/gettune/00001119.html
%%ID:00001119
K:C
G | \
cCEG | cCCG | cCEG | dDDG | cCEG | cfed | c/B/A/G/ A/c/B/d/ | cCC ||
e/f/ | \
gefd | ecc(e/f/) | gefe | dDD(f/g/) | \
gefd | ecfd | c/B/A/G/ A/c/B/d/ | cCC |]
